X:88
T:John McNeil's Reel
B:NFID.187b
088john_mc
N:Sometimes called "Big John McNeill's"
S:DOD
L:1/8
M:C
R:reel
Q:360
K:A
A,2CE FECE|AECE FECE|A,2CE FECE|FCEC B,DCB,|
A,2CE FECE|AECE FECE|B,DCE DFE=G|FA=GB cAAf||
eAfA e2 (3agf|eAfA eAce|dfca B2cd|eAfA eAcd|
eAfA e2fg|1 agag fedc|BAGF EDCB,:|2 agag fece|\
fagb a2a2||

%%%

